X:1
T:Title
%%score ( 1 2 ) ( 3 4 )
L:1/8
Q:1/4=120
M:6/4
K:G
V:1 treble nm="Midi_20"
V:2 treble 
V:3 bass nm="Midi_20"
V:4 bass 
V:1
"^Spring-tide hour (4 4 6. D.)""^Joseph Barnby\n(1838-96)" D2 | D4 E2 F4 G2 | (G2 F2) G2 A4 c2 | %3
 B4 d2 (^c2 B2) A2 | d6- d4 ||[M:6/4] d2 | d4 c2 G4 c2 | (c2 B2) A2 (G2 F2) E2 | (D2 G2) c2 B4 A2 | %9
 G6- G4 |] %10
V:2
 D2 | D4 D2 D4 D2 | C4 C2 C4 D2 | D4 G2 G4 G2 | F6- F4 ||[M:6/4] =F2 | E4 E2 E4 E2 | %7
w: The|mor- ning bright, With|ro- sy light, Has|waked me up from|sleep; *|Fa-|ther, I own, Thy|
w: All|through the day, I|hum- bly pray, Be|Thou my Guard and|Guide; *|My|sins for- give, And|
w: O|make Thy rest With-|in my breast, Great|Spi- rit of all|grace; *|Make|me like Thee, Then|
 ^D4 B,2 B,4 C2 | (B,2 D2) G2 F4 F2 | G6- G4 |] %10
w: love a- lone Thy|lit\- * tle one doth|keep. *|
w: let me live, Blest|Je\- * sus, near Thy|side. *|
w: shall I be Pre-|pared * to see Thy|face. *|
V:3
 B,2 | B,4 B,2 B,4 B,2 | A,4 G,2 F,4 A,2 | G,4 B,2 (^C2 D2) C2 | D6- D4 ||[M:6/4] B,2 | %6
 G,4 G,2 G,4 F,2 | F,4 F,2 G,4 G,2 | (G,2 B,2) E2 D4 C2 | B,6- B,4 |] %10
V:4
 G,2 | G,4 G,2 G,4 G,2 | D,4 D,2 D,4 F,2 | G,4 E,2 A,4 A,2 | D,6- D,4 ||[M:6/4] G,2 | %6
 C,4 C,2 C,4 A,,2 | B,,4 ^D,2 E,4 C,2 | D,4 D,2 D,4 D,2 | G,,6- G,,4 |] %10

